icons/brand/icon_card-visa_xl_white.svg

<?xml version="1.0" encoding="UTF-8"?>
<svg width="36px" height="36px" viewBox="0 0 36 36" version="1.1" xmlns="http://www.w3.org/2000/svg" xmlns:xlink="http://www.w3.org/1999/xlink">
    <!-- Generator: Sketch 47.1 (45422) - http://www.bohemiancoding.com/sketch -->
    <title>icon_card-visa_xl_white</title>
    <desc>Created with Sketch.</desc>
    <defs></defs>
    <g id="October-2017" stroke="none" stroke-width="1" fill="none" fill-rule="evenodd">
        <g id="icon_card-visa_xl_white">
            <g>
                <rect id="_ph_" x="0" y="0" width="36" height="36"></rect>
                <path d="M12.8466667,22.8333333 L15.3611111,22.8333333 L16.9333333,13.1733333 L14.4188889,13.1733333 L12.8466667,22.8333333 Z M28.7866667,13.1733333 C27.8533333,13.1733333 27.6255556,13.8933333 27.6255556,13.8933333 L23.8744444,22.8344444 L26.4955556,22.8344444 L27.02,21.4 L30.2177778,21.4 L30.5133333,22.8344444 L32.8222222,22.8344444 L30.8088889,13.1733333 L28.7866667,13.1733333 L28.7866667,13.1733333 Z M27.7455556,19.4166667 L29.0666667,15.8011111 L29.81,19.4166667 L27.7455556,19.4166667 Z M17.2855556,20.2855556 C18.3155556,21.1122222 21.4355556,21.3466667 21.4344444,20.0355556 C21.4344444,18.7244444 17.9555556,18.6944444 17.9555556,16.1977778 C17.9555556,13.5455556 20.92,13 22.1677778,13 C23.3222222,13 24.43,13.4211111 24.43,13.4211111 L24.0711111,15.4955556 C22.9944444,14.9022222 20.5455556,14.7622222 20.5455556,15.8544444 C20.5455556,16.9466667 24.0555556,17.18 24.0555556,19.6922222 C24.0555556,22.1111111 21.4655556,23 19.75,23 C18.0344444,23 16.9111111,22.4544444 16.9111111,22.4544444 L17.2855556,20.2855556 Z M7.20333333,14.0433333 L8.05,18.3833333 L8.33333333,19.8144444 L10.7311111,13.17 L13.4377778,13.17 L9.43666667,22.8311111 L6.81666667,22.8311111 L4.63444444,14.4477778 C4.58555556,14.4177778 4.53555556,14.3844444 4.48666667,14.3566667 C4.40777778,14.3111111 4.32888889,14.2666667 4.25111111,14.2244444 C4.12666667,14.1566667 4.00444444,14.0944444 3.88555556,14.0355556 C3.81666667,14.0011111 3.74666667,13.9655556 3.68,13.9344444 C3.53222222,13.8655556 3.39,13.8044444 3.25555556,13.7488889 C3.21111111,13.7311111 3.16888889,13.7133333 3.12666667,13.6966667 C2.98777778,13.6422222 2.85777778,13.5944444 2.74,13.5533333 C2.68666667,13.5355556 2.64,13.52 2.59111111,13.5044444 C2.51555556,13.48 2.44111111,13.4566667 2.37888889,13.4377778 C2.33888889,13.4266667 2.30111111,13.4155556 2.26666667,13.4055556 C2.21,13.3888889 2.15777778,13.3755556 2.12,13.3655556 C2.10333333,13.3622222 2.08,13.3555556 2.06666667,13.3522222 C2.03222222,13.3444444 2,13.3366667 2,13.3366667 L2.04666667,13.1733333 L6.01,13.1733333 C7.10111111,13.1733333 7.20333333,14.0433333 7.20333333,14.0433333 Z" id="Shape" fill="#FFFFFF"></path>
            </g>
        </g>
    </g>
</svg>

<svg width="36" height="36" viewBox="0 0 36 36" xmlns="http://www.w3.org/2000/svg">
  <g fill="none" fill-rule="evenodd">
    <path d="M0 0h36v36H0z"/>
    <path d="M12.847 22.833h2.514l1.573-9.66H14.42l-1.573 9.66zm15.94-9.66c-.934 0-1.16.72-1.16.72l-3.753 8.94h2.622l.524-1.433h3.198l.295 1.434h2.31l-2.014-9.66h-2.023zm-1.04 6.244l1.32-3.616.743 3.617h-2.064zm-10.46.87c1.03.825 4.15 1.06 4.147-.25 0-1.313-3.478-1.343-3.478-3.84 0-2.65 2.964-3.197 4.212-3.197 1.154 0 2.262.42 2.262.42l-.36 2.076c-1.076-.594-3.524-.734-3.524.358 0 1.093 3.51 1.326 3.51 3.838 0 2.42-2.59 3.308-4.306 3.308-1.716 0-2.84-.546-2.84-.546l.376-2.168zM7.202 14.042l.847 4.34.283 1.43 2.398-6.643h2.708l-4 9.66h-2.62L4.633 14.45c-.048-.03-.098-.064-.147-.09-.08-.047-.158-.09-.236-.134-.123-.067-.246-.13-.364-.188l-.206-.102c-.148-.068-.29-.13-.424-.185-.045-.02-.087-.037-.13-.053-.138-.055-.268-.103-.386-.144l-.15-.05-.21-.065c-.04-.01-.08-.022-.113-.032-.057-.017-.11-.03-.147-.04l-.053-.014L2 13.337l.047-.164H6.01c1.09 0 1.193.87 1.193.87z" fill="#FFF"/>
  </g>
</svg>
